public/images/logo-liquidity.svg

<svg width="249" height="38" viewBox="0 0 249 38" fill="none" xmlns="http://www.w3.org/2000/svg">
<path d="M13.601 0C6.09058 0 0 6.12 0 13.6667C0 21.2133 6.09058 27.3333 13.601 27.3333C21.1113 27.3333 27.2019 21.2133 27.2019 13.6667C27.2019 6.12 21.1113 0 13.601 0Z" fill="white"/>
<path d="M20.3815 6.75333C19.6252 5.99333 17.595 7.17333 16.0027 8.30667C15.2198 7.92667 14.3374 7.71333 13.4152 7.71333C10.0846 7.71333 7.38433 10.4333 7.38433 13.7733C7.38433 14.7067 7.60327 15.5867 7.98145 16.38C6.84029 17.9867 5.6726 20.02 6.42895 20.78C6.60145 20.9533 6.83366 21.04 7.13885 21.04C7.7625 21.04 8.67145 20.6667 9.84577 19.92C10.1642 19.72 10.5026 19.4867 10.841 19.24C11.6238 19.62 12.493 19.84 13.4218 19.84C16.7458 19.84 19.4527 17.12 19.4527 13.78C19.4527 12.8467 19.2338 11.9733 18.8556 11.1867C19.1011 10.8467 19.3266 10.5067 19.5323 10.1933C20.627 8.44667 20.9189 7.29333 20.3882 6.76L20.3815 6.75333ZM18.5305 10.58C18.1921 11.0667 17.8073 11.5867 17.3628 12.1267C17.3562 12.1333 17.3495 12.14 17.3429 12.1467C17.2168 12.3067 17.0775 12.4667 16.9448 12.6267C16.905 12.68 16.8586 12.7267 16.8188 12.7733C16.6993 12.9133 16.5865 13.0533 16.4605 13.1933C16.3875 13.28 16.3079 13.3667 16.2349 13.4467C16.1288 13.56 16.0292 13.6733 15.9231 13.7933C15.8103 13.92 15.6909 14.0467 15.5714 14.1733C15.4918 14.2533 15.4189 14.3333 15.3392 14.42C15.1336 14.6333 14.9213 14.8533 14.7089 15.0667C14.4966 15.28 14.2843 15.4933 14.072 15.6933C13.9858 15.78 13.8995 15.8533 13.8133 15.9333C13.6938 16.0533 13.5678 16.1667 13.4417 16.28C13.3289 16.3867 13.2162 16.4933 13.0967 16.5933C13.0105 16.6733 12.9242 16.7467 12.838 16.8267C12.7053 16.9467 12.566 17.0667 12.4333 17.18C12.3802 17.2267 12.3205 17.2733 12.2674 17.32C12.1148 17.4533 11.9556 17.5867 11.8096 17.7067C11.7897 17.72 11.7698 17.7333 11.7565 17.7467C11.2324 18.18 10.7282 18.56 10.2571 18.8867C10.005 19.0667 9.75289 19.24 9.52068 19.3933C7.76914 20.5 7.01943 20.5067 6.85356 20.34C6.63462 20.12 6.87347 19.04 8.30654 16.96C8.68472 17.5667 9.16241 18.1 9.71972 18.54C10.9272 17.7133 12.4864 16.44 14.291 14.6333C16.0956 12.8267 17.3429 11.26 18.1722 10.04C17.7343 9.48 17.2036 9 16.5998 8.62C18.6698 7.18 19.7446 6.94667 19.9636 7.16C20.1361 7.33333 20.1228 8.08667 19.0214 9.84C18.8755 10.0733 18.7096 10.3133 18.5371 10.56L18.5305 10.58Z" fill="black"/>
<path d="M33.0669 19.54H36.3577V4.08667H33.0669V19.54Z" fill="white"/>
<path d="M39.3035 19.54H42.3554V12.6333C42.8132 11.9933 43.6292 11.3133 44.704 11.3133C45.8717 11.3133 46.7475 11.9733 46.7475 13.3867V19.54H49.7994V12.9867C49.7994 10.54 48.2867 8.64 45.5201 8.64C44.0008 8.64 42.8198 9.34667 42.0037 10.2933V8.94667H39.3035V19.54Z" fill="white"/>
<path d="M57.4292 19.8533C58.7694 19.8533 59.957 19.5867 60.9854 19.1467V16.4333C60.2158 16.8933 59.1144 17.1867 58.0197 17.1867C56.3743 17.1867 54.7953 16.28 54.7953 14.2467C54.7953 12.1067 56.4208 11.2933 58.0662 11.2933C59.0812 11.2933 60.1295 11.6 60.8792 12.0867V9.39333C59.9305 8.88667 58.7893 8.62 57.6283 8.62C54.709 8.62 51.677 10.34 51.677 14.4C51.677 18.1733 54.5564 19.8533 57.4359 19.8533H57.4292Z" fill="white"/>
<path d="M68.5621 19.8533C70.1412 19.8533 71.4349 19.6133 72.4235 19.1933V16.7867C71.5278 17.16 70.4463 17.4067 69.2388 17.4067C67.5006 17.4067 65.8751 16.7867 65.5235 15.2467H72.9476C73.6509 12.1133 72.2443 8.64667 67.8721 8.64667C65.5036 8.64667 62.445 10.26 62.445 14.2533C62.445 17.94 65.2116 19.86 68.5555 19.86L68.5621 19.8533ZM65.5102 13.2533C65.5566 11.8 66.6978 10.98 67.9915 10.98C69.8824 10.98 70.3004 12.5267 70.1677 13.2533H65.5102Z" fill="white"/>
<path d="M75.0839 24.3933H78.1359V18.4333C78.8192 19.16 79.9339 19.8467 81.6058 19.8467C84.943 19.8467 86.741 17.1333 86.741 14.24C86.741 11.3467 84.943 8.63333 81.6058 8.63333C79.6751 8.63333 78.4676 9.53333 77.7842 10.4867V8.94H75.0839V24.3933ZM80.8627 17.2667C79.5424 17.2667 78.5538 16.4067 78.1425 15.5V12.98C78.5605 12.0733 79.5424 11.2133 80.8627 11.2133C82.6209 11.2133 83.6293 12.58 83.6293 14.2333C83.6293 15.8867 82.6142 17.26 80.8627 17.26V17.2667Z" fill="white"/>
<path d="M93.3623 19.8533C94.4172 19.8533 95.3792 19.6733 96.1953 19.3933V16.92C95.5783 17.14 94.9878 17.2467 94.2845 17.2467C93.1434 17.2467 92.6126 16.78 92.6126 15.68V11.5333H95.9299V8.94667H92.6126V5.12667L89.5607 5.85333V8.94667H87.7826V11.5333H89.5607V16.2733C89.5607 18.9 91.3188 19.8467 93.3623 19.8467V19.8533Z" fill="white"/>
<path d="M103.493 19.9467H113.485V18.2467H105.271V5.05333H103.493V19.9467ZM116.258 7.56667C116.849 7.56667 117.36 7.20667 117.36 6.48C117.36 5.75333 116.849 5.39333 116.258 5.39333C115.668 5.39333 115.157 5.77333 115.157 6.48C115.157 7.18667 115.661 7.56667 116.258 7.56667ZM115.409 19.9467H117.108V9.73333H115.409V19.9467ZM128.599 24.6267H130.297V9.73333H128.771V11.44C127.862 10.4 126.615 9.48 124.664 9.48C121.765 9.48 119.582 11.7733 119.582 14.84C119.582 17.9067 121.765 20.2 124.664 20.2C126.615 20.2 127.862 19.2867 128.599 18.4133V24.6267ZM124.85 18.6267C122.88 18.6267 121.274 17.18 121.274 14.84C121.274 12.5 122.886 11.0467 124.85 11.0467C126.675 11.0467 128.028 12.24 128.599 13.56V16.1133C128.028 17.4333 126.675 18.6267 124.85 18.6267ZM137.536 20.2C139.168 20.2 140.521 19.3333 141.198 18.44V19.9467H142.724V9.73333H141.025V16.58C140.349 17.6 139.227 18.6267 137.728 18.6267C135.95 18.6267 135.001 17.7333 135.001 15.82V9.73333H133.303V16.0267C133.303 18.5133 134.888 20.1933 137.536 20.1933V20.2ZM146.744 7.56667C147.335 7.56667 147.846 7.20667 147.846 6.48C147.846 5.75333 147.335 5.39333 146.744 5.39333C146.154 5.39333 145.643 5.77333 145.643 6.48C145.643 7.18667 146.147 7.56667 146.744 7.56667ZM145.895 19.9467H147.594V9.73333H145.895V19.9467ZM155.144 20.2C157.094 20.2 158.342 19.2867 159.251 18.2467V19.9467H160.777V5.05333H159.078V11.2667C158.335 10.3933 157.088 9.48 155.144 9.48C152.245 9.48 150.062 11.7733 150.062 14.84C150.062 17.9067 152.245 20.2 155.144 20.2ZM155.336 18.6267C153.366 18.6267 151.76 17.18 151.76 14.84C151.76 12.5 153.372 11.0467 155.336 11.0467C157.161 11.0467 158.514 12.24 159.085 13.56V16.1133C158.514 17.4333 157.161 18.6267 155.336 18.6267ZM164.804 7.56667C165.394 7.56667 165.905 7.20667 165.905 6.48C165.905 5.75333 165.394 5.39333 164.804 5.39333C164.213 5.39333 163.702 5.77333 163.702 6.48C163.702 7.18667 164.207 7.56667 164.804 7.56667ZM163.955 19.9467H165.653V9.73333H163.955V19.9467ZM172.865 20.18C173.84 20.18 174.835 19.9867 175.598 19.7133V18.14C174.922 18.4133 174.159 18.6067 173.349 18.6067C171.87 18.6067 171.166 18.14 171.166 16.58V11.3067H175.233V9.73333H171.166V6.14L169.495 6.56667V9.74H167.59V11.3133H169.495V16.8867C169.495 19.12 170.888 20.18 172.858 20.18H172.865ZM178.179 24.8867C179.659 24.8867 180.952 23.9467 182.007 21.48L187.003 9.73333H185.205L181.775 18.0067L177.94 9.73333H176.142L180.972 19.9667L180.594 20.9C179.937 22.56 179.115 23.3867 177.967 23.3867C177.675 23.3867 177.376 23.3467 177.078 23.26V24.7267C177.463 24.8333 177.821 24.8733 178.179 24.8733V24.8867Z" fill="url(#paint0_linear_3725_4341)"/>
<path d="M164.635 37.5333V30.5333H167.775C168.582 30.5333 169.202 30.6967 169.635 31.0233C170.068 31.3433 170.285 31.7833 170.285 32.3433C170.285 32.7233 170.198 33.0433 170.025 33.3033C169.858 33.5633 169.632 33.7633 169.345 33.9033C169.058 34.0433 168.748 34.1133 168.415 34.1133L168.595 33.8133C168.995 33.8133 169.348 33.8833 169.655 34.0233C169.962 34.1633 170.205 34.37 170.385 34.6433C170.565 34.91 170.655 35.2433 170.655 35.6433C170.655 36.2433 170.428 36.71 169.975 37.0433C169.528 37.37 168.862 37.5333 167.975 37.5333H164.635ZM165.635 36.7233H167.935C168.488 36.7233 168.912 36.63 169.205 36.4433C169.498 36.2567 169.645 35.9633 169.645 35.5633C169.645 35.1567 169.498 34.86 169.205 34.6733C168.912 34.4867 168.488 34.3933 167.935 34.3933H165.545V33.5833H167.685C168.192 33.5833 168.585 33.49 168.865 33.3033C169.145 33.1167 169.285 32.8367 169.285 32.4633C169.285 32.09 169.145 31.81 168.865 31.6233C168.585 31.4367 168.192 31.3433 167.685 31.3433H165.635V36.7233Z" fill="url(#paint1_linear_3725_4341)"/>
<path d="M174.423 37.5933C173.857 37.5933 173.357 37.4767 172.923 37.2433C172.497 37.01 172.163 36.69 171.923 36.2833C171.69 35.8767 171.573 35.41 171.573 34.8833C171.573 34.3567 171.687 33.89 171.913 33.4833C172.147 33.0767 172.463 32.76 172.863 32.5333C173.27 32.3 173.727 32.1833 174.233 32.1833C174.747 32.1833 175.2 32.2967 175.593 32.5233C175.987 32.75 176.293 33.07 176.513 33.4833C176.74 33.89 176.853 34.3667 176.853 34.9133C176.853 34.9533 176.85 35 176.843 35.0533C176.843 35.1067 176.84 35.1567 176.833 35.2033H172.323V34.5133H176.333L175.943 34.7533C175.95 34.4133 175.88 34.11 175.733 33.8433C175.587 33.5767 175.383 33.37 175.123 33.2233C174.87 33.07 174.573 32.9933 174.233 32.9933C173.9 32.9933 173.603 33.07 173.343 33.2233C173.083 33.37 172.88 33.58 172.733 33.8533C172.587 34.12 172.513 34.4267 172.513 34.7733V34.9333C172.513 35.2867 172.593 35.6033 172.753 35.8833C172.92 36.1567 173.15 36.37 173.443 36.5233C173.737 36.6767 174.073 36.7533 174.453 36.7533C174.767 36.7533 175.05 36.7 175.303 36.5933C175.563 36.4867 175.79 36.3267 175.983 36.1133L176.513 36.7333C176.273 37.0133 175.973 37.2267 175.613 37.3733C175.26 37.52 174.863 37.5933 174.423 37.5933Z" fill="url(#paint2_linear_3725_4341)"/>
<path d="M180.006 37.5933C179.473 37.5933 179.06 37.45 178.766 37.1633C178.473 36.8767 178.326 36.4667 178.326 35.9333V31.0733H179.286V35.8933C179.286 36.18 179.356 36.4 179.496 36.5533C179.643 36.7067 179.85 36.7833 180.116 36.7833C180.416 36.7833 180.666 36.7 180.866 36.5333L181.166 37.2233C181.02 37.35 180.843 37.4433 180.636 37.5033C180.436 37.5633 180.226 37.5933 180.006 37.5933ZM177.426 33.0233V32.2333H180.806V33.0233H177.426Z" fill="url(#paint3_linear_3725_4341)"/>
<path d="M185.617 37.5333V36.4133L185.567 36.2033V34.2933C185.567 33.8867 185.447 33.5733 185.207 33.3533C184.974 33.1267 184.62 33.0133 184.147 33.0133C183.834 33.0133 183.527 33.0667 183.227 33.1733C182.927 33.2733 182.674 33.41 182.467 33.5833L182.067 32.8633C182.34 32.6433 182.667 32.4767 183.047 32.3633C183.434 32.2433 183.837 32.1833 184.257 32.1833C184.984 32.1833 185.544 32.36 185.937 32.7133C186.33 33.0667 186.527 33.6067 186.527 34.3333V37.5333H185.617ZM183.877 37.5933C183.484 37.5933 183.137 37.5267 182.837 37.3933C182.544 37.26 182.317 37.0767 182.157 36.8433C181.997 36.6033 181.917 36.3333 181.917 36.0333C181.917 35.7467 181.984 35.4867 182.117 35.2533C182.257 35.02 182.48 34.8333 182.787 34.6933C183.1 34.5533 183.52 34.4833 184.047 34.4833H185.727V35.1733H184.087C183.607 35.1733 183.284 35.2533 183.117 35.4133C182.95 35.5733 182.867 35.7667 182.867 35.9933C182.867 36.2533 182.97 36.4633 183.177 36.6233C183.384 36.7767 183.67 36.8533 184.037 36.8533C184.397 36.8533 184.71 36.7733 184.977 36.6133C185.25 36.4533 185.447 36.22 185.567 35.9133L185.757 36.5733C185.63 36.8867 185.407 37.1367 185.087 37.3233C184.767 37.5033 184.364 37.5933 183.877 37.5933Z" fill="url(#paint4_linear_3725_4341)"/>
<rect x="196" y="9" width="53" height="20" rx="10" fill="white"/>
<path d="M208.382 23H205.918V15.7273H208.432C209.154 15.7273 209.774 15.8729 210.293 16.1641C210.813 16.4529 211.213 16.8684 211.493 17.4105C211.772 17.9527 211.912 18.6013 211.912 19.3565C211.912 20.1141 211.771 20.7652 211.489 21.3097C211.21 21.8542 210.806 22.272 210.278 22.5632C209.753 22.8544 209.121 23 208.382 23ZM207.235 21.8601H208.318C208.825 21.8601 209.247 21.7678 209.586 21.5831C209.924 21.3961 210.179 21.1179 210.349 20.7486C210.52 20.3769 210.605 19.9129 210.605 19.3565C210.605 18.8002 210.52 18.3385 210.349 17.9716C210.179 17.6023 209.927 17.3265 209.593 17.1442C209.262 16.9595 208.85 16.8672 208.357 16.8672H207.235V21.8601ZM215.522 23.1065C214.975 23.1065 214.502 22.9929 214.105 22.7656C213.709 22.536 213.405 22.2116 213.192 21.7926C212.979 21.3712 212.872 20.8752 212.872 20.3047C212.872 19.7436 212.979 19.2512 213.192 18.8274C213.407 18.4013 213.708 18.0698 214.094 17.8331C214.48 17.594 214.933 17.4744 215.454 17.4744C215.79 17.4744 216.108 17.5289 216.406 17.6378C216.706 17.7443 216.972 17.91 217.201 18.1349C217.433 18.3598 217.616 18.6463 217.748 18.9943C217.881 19.34 217.947 19.7519 217.947 20.2301V20.6243H213.476V19.7578H216.715C216.712 19.5116 216.659 19.2926 216.555 19.1009C216.451 18.9067 216.305 18.754 216.118 18.6428C215.934 18.5315 215.718 18.4759 215.472 18.4759C215.209 18.4759 214.978 18.5398 214.779 18.6676C214.581 18.7931 214.425 18.9588 214.314 19.1648C214.205 19.3684 214.15 19.5921 214.147 19.8359V20.5923C214.147 20.9096 214.205 21.1818 214.321 21.4091C214.437 21.634 214.599 21.8068 214.808 21.9276C215.016 22.0459 215.26 22.1051 215.539 22.1051C215.726 22.1051 215.896 22.0791 216.047 22.027C216.199 21.9725 216.33 21.8932 216.441 21.7891C216.553 21.6849 216.637 21.5559 216.693 21.402L217.894 21.5369C217.818 21.8542 217.674 22.1312 217.46 22.3679C217.25 22.6023 216.98 22.7846 216.651 22.9148C216.322 23.0426 215.945 23.1065 215.522 23.1065ZM223.75 17.5455L221.808 23H220.388L218.445 17.5455H219.816L221.069 21.5973H221.126L222.383 17.5455H223.75ZM225.926 19.804V23H224.64V17.5455H225.869V18.4723H225.933C226.058 18.1669 226.258 17.9242 226.533 17.7443C226.81 17.5644 227.152 17.4744 227.559 17.4744C227.935 17.4744 228.263 17.5549 228.543 17.7159C228.824 17.8769 229.042 18.1101 229.196 18.4155C229.352 18.7209 229.429 19.0914 229.427 19.527V23H228.141V19.7259C228.141 19.3613 228.047 19.076 227.857 18.87C227.67 18.6641 227.411 18.5611 227.08 18.5611C226.855 18.5611 226.655 18.6108 226.479 18.7102C226.307 18.8073 226.171 18.9482 226.071 19.1328C225.974 19.3175 225.926 19.5412 225.926 19.804ZM233.149 23.1065C232.602 23.1065 232.129 22.9929 231.732 22.7656C231.336 22.536 231.032 22.2116 230.819 21.7926C230.606 21.3712 230.499 20.8752 230.499 20.3047C230.499 19.7436 230.606 19.2512 230.819 18.8274C231.034 18.4013 231.335 18.0698 231.721 17.8331C232.107 17.594 232.56 17.4744 233.081 17.4744C233.417 17.4744 233.734 17.5289 234.033 17.6378C234.333 17.7443 234.599 17.91 234.828 18.1349C235.06 18.3598 235.243 18.6463 235.375 18.9943C235.508 19.34 235.574 19.7519 235.574 20.2301V20.6243H231.103V19.7578H234.342C234.339 19.5116 234.286 19.2926 234.182 19.1009C234.078 18.9067 233.932 18.754 233.745 18.6428C233.56 18.5315 233.345 18.4759 233.099 18.4759C232.836 18.4759 232.605 18.5398 232.406 18.6676C232.207 18.7931 232.052 18.9588 231.941 19.1648C231.832 19.3684 231.777 19.5921 231.774 19.8359V20.5923C231.774 20.9096 231.832 21.1818 231.948 21.4091C232.064 21.634 232.226 21.8068 232.435 21.9276C232.643 22.0459 232.887 22.1051 233.166 22.1051C233.353 22.1051 233.523 22.0791 233.674 22.027C233.826 21.9725 233.957 21.8932 234.068 21.7891C234.18 21.6849 234.264 21.5559 234.32 21.402L235.521 21.5369C235.445 21.8542 235.301 22.1312 235.087 22.3679C234.877 22.6023 234.607 22.7846 234.278 22.9148C233.949 23.0426 233.572 23.1065 233.149 23.1065ZM239.385 17.5455V18.5398H236.25V17.5455H239.385ZM237.024 16.2386H238.309V21.3594C238.309 21.5322 238.335 21.6648 238.387 21.7571C238.442 21.8471 238.513 21.9086 238.6 21.9418C238.688 21.9749 238.785 21.9915 238.892 21.9915C238.972 21.9915 239.045 21.9856 239.112 21.9737C239.18 21.9619 239.233 21.9512 239.268 21.9418L239.485 22.9467C239.416 22.9704 239.318 22.9964 239.19 23.0249C239.064 23.0533 238.911 23.0698 238.728 23.0746C238.406 23.084 238.116 23.0355 237.858 22.929C237.6 22.8201 237.395 22.652 237.244 22.4247C237.095 22.1974 237.021 21.9134 237.024 21.5724V16.2386Z" fill="black"/>
<defs>
<linearGradient id="paint0_linear_3725_4341" x1="60.6754" y1="-29.7967" x2="108.408" y2="67.4011" gradientUnits="userSpaceOnUse">
<stop stop-color="#00EAFF"/>
<stop offset="0.27" stop-color="#9BE7FF"/>
<stop offset="0.72" stop-color="#A1E7FF"/>
<stop offset="1" stop-color="#00AAFF"/>
</linearGradient>
<linearGradient id="paint1_linear_3725_4341" x1="1.39328e-06" y1="18.7967" x2="180.077" y2="18.7967" gradientUnits="userSpaceOnUse">
<stop offset="0.213542" stop-color="white"/>
<stop offset="1" stop-color="#4FE5FF"/>
</linearGradient>
<linearGradient id="paint2_linear_3725_4341" x1="1.39328e-06" y1="18.7967" x2="180.077" y2="18.7967" gradientUnits="userSpaceOnUse">
<stop offset="0.213542" stop-color="white"/>
<stop offset="1" stop-color="#4FE5FF"/>
</linearGradient>
<linearGradient id="paint3_linear_3725_4341" x1="1.39328e-06" y1="18.7967" x2="180.077" y2="18.7967" gradientUnits="userSpaceOnUse">
<stop offset="0.213542" stop-color="white"/>
<stop offset="1" stop-color="#4FE5FF"/>
</linearGradient>
<linearGradient id="paint4_linear_3725_4341" x1="1.39328e-06" y1="18.7967" x2="180.077" y2="18.7967" gradientUnits="userSpaceOnUse">
<stop offset="0.213542" stop-color="white"/>
<stop offset="1" stop-color="#4FE5FF"/>
</linearGradient>
</defs>
</svg>

<svg width="188" height="38" viewBox="0 0 188 38" fill="none" xmlns="http://www.w3.org/2000/svg">
    <path d="M13.601 0C6.091 0 0 6.12 0 13.667c0 7.546 6.09 13.666 13.601 13.666 7.51 0 13.6-6.12 13.6-13.666C27.202 6.12 21.112 0 13.602 0z" fill="#fff"/>
    <path d="M20.381 6.753c-.756-.76-2.786.42-4.378 1.554a5.925 5.925 0 0 0-2.588-.594c-3.33 0-6.03 2.72-6.03 6.06 0 .934.218 1.814.596 2.607-1.14 1.607-2.308 3.64-1.552 4.4.172.173.405.26.71.26.623 0 1.532-.373 2.707-1.12.318-.2.657-.433.995-.68.783.38 1.652.6 2.58.6 3.325 0 6.032-2.72 6.032-6.06 0-.933-.22-1.807-.597-2.593.245-.34.47-.68.676-.994 1.095-1.746 1.387-2.9.856-3.433l-.007-.007zm-1.85 3.827a23.787 23.787 0 0 1-1.168 1.547l-.02.02c-.126.16-.265.32-.398.48-.04.053-.086.1-.126.146-.12.14-.232.28-.358.42-.073.087-.153.174-.226.254-.106.113-.206.226-.312.346-.113.127-.232.254-.352.38-.08.08-.152.16-.232.247-.205.213-.418.433-.63.647-.212.213-.425.426-.637.626-.086.087-.172.16-.259.24a9.16 9.16 0 0 1-.371.347 7.651 7.651 0 0 1-.345.313c-.086.08-.173.154-.259.234-.133.12-.272.24-.405.353-.053.047-.113.093-.166.14a20.28 20.28 0 0 1-.457.387.363.363 0 0 0-.053.04c-.525.433-1.029.813-1.5 1.14-.252.18-.504.353-.736.506-1.752 1.107-2.502 1.114-2.667.947-.22-.22.02-1.3 1.453-3.38.378.607.855 1.14 1.413 1.58 1.207-.827 2.766-2.1 4.571-3.907 1.805-1.806 3.052-3.373 3.881-4.593A6.159 6.159 0 0 0 16.6 8.62c2.07-1.44 3.145-1.673 3.364-1.46.172.173.159.927-.943 2.68-.146.233-.311.473-.484.72l-.006.02z" fill="#000"/>
    <path d="M33.067 19.54h3.29V4.087h-3.29V19.54zM39.303 19.54h3.052v-6.907c.458-.64 1.274-1.32 2.349-1.32 1.168 0 2.044.66 2.044 2.074v6.153h3.051v-6.553c0-2.447-1.512-4.347-4.279-4.347-1.52 0-2.7.707-3.516 1.653V8.947h-2.7V19.54zM57.43 19.853c1.34 0 2.527-.266 3.555-.706v-2.714c-.77.46-1.87.754-2.965.754-1.646 0-3.225-.907-3.225-2.94 0-2.14 1.626-2.954 3.271-2.954 1.015 0 2.063.307 2.813.794V9.393c-.948-.506-2.09-.773-3.25-.773-2.92 0-5.952 1.72-5.952 5.78 0 3.773 2.88 5.453 5.759 5.453h-.007zM68.562 19.853c1.58 0 2.873-.24 3.862-.66v-2.406a8.293 8.293 0 0 1-3.185.62c-1.738 0-3.364-.62-3.716-2.16h7.425c.703-3.134-.704-6.6-5.076-6.6-2.368 0-5.427 1.613-5.427 5.606 0 3.687 2.767 5.607 6.11 5.607l.007-.007zm-3.052-6.6c.047-1.453 1.188-2.273 2.481-2.273 1.891 0 2.31 1.547 2.177 2.273H65.51zM75.084 24.393h3.052v-5.96c.683.727 1.798 1.414 3.47 1.414 3.337 0 5.135-2.714 5.135-5.607 0-2.893-1.798-5.607-5.135-5.607-1.93 0-3.138.9-3.822 1.854V8.94h-2.7v15.453zm5.779-7.126c-1.32 0-2.31-.86-2.72-1.767v-2.52c.418-.907 1.4-1.767 2.72-1.767 1.758 0 2.766 1.367 2.766 3.02 0 1.654-1.015 3.027-2.766 3.027v.007zM93.362 19.853c1.055 0 2.017-.18 2.833-.46V16.92a5.455 5.455 0 0 1-1.91.327c-1.142 0-1.672-.467-1.672-1.567v-4.147h3.317V8.947h-3.317v-3.82l-3.052.726v3.094h-1.778v2.586h1.778v4.74c0 2.627 1.758 3.574 3.801 3.574v.006z" fill="#fff"/>
    <path d="M103.493 19.947h9.992v-1.7h-8.214V5.053h-1.778v14.894zm12.765-12.38c.591 0 1.102-.36 1.102-1.087s-.511-1.087-1.102-1.087c-.59 0-1.101.38-1.101 1.087s.504 1.087 1.101 1.087zm-.849 12.38h1.699V9.733h-1.699v10.214zm13.19 4.68h1.698V9.733h-1.526v1.707c-.909-1.04-2.156-1.96-4.107-1.96-2.899 0-5.082 2.293-5.082 5.36s2.183 5.36 5.082 5.36c1.951 0 3.198-.913 3.935-1.787v6.214zm-3.749-6c-1.97 0-3.576-1.447-3.576-3.787s1.612-3.793 3.576-3.793c1.825 0 3.178 1.193 3.749 2.513v2.553c-.571 1.32-1.924 2.514-3.749 2.514zm12.686 1.573c1.632 0 2.985-.867 3.662-1.76v1.507h1.526V9.733h-1.699v6.847c-.676 1.02-1.798 2.047-3.297 2.047-1.778 0-2.727-.894-2.727-2.807V9.733h-1.698v6.294c0 2.486 1.585 4.166 4.233 4.166v.007zm9.208-12.633c.591 0 1.102-.36 1.102-1.087s-.511-1.087-1.102-1.087c-.59 0-1.101.38-1.101 1.087s.504 1.087 1.101 1.087zm-.849 12.38h1.699V9.733h-1.699v10.214zm9.249.253c1.95 0 3.198-.913 4.107-1.953v1.7h1.526V5.053h-1.699v6.214c-.743-.874-1.99-1.787-3.934-1.787-2.899 0-5.082 2.293-5.082 5.36s2.183 5.36 5.082 5.36zm.192-1.573c-1.97 0-3.576-1.447-3.576-3.787s1.612-3.793 3.576-3.793c1.825 0 3.178 1.193 3.749 2.513v2.553c-.571 1.32-1.924 2.514-3.749 2.514zm9.468-11.06c.59 0 1.101-.36 1.101-1.087s-.511-1.087-1.101-1.087c-.591 0-1.102.38-1.102 1.087s.505 1.087 1.102 1.087zm-.849 12.38h1.698V9.733h-1.698v10.214zm8.91.233c.975 0 1.97-.193 2.733-.467V18.14c-.676.273-1.439.467-2.249.467-1.479 0-2.183-.467-2.183-2.027v-5.273h4.067V9.733h-4.067V6.14l-1.671.427V9.74h-1.905v1.573h1.905v5.574c0 2.233 1.393 3.293 3.363 3.293h.007zm5.314 4.707c1.48 0 2.773-.94 3.828-3.407l4.996-11.747h-1.798l-3.43 8.274-3.835-8.274h-1.798l4.83 10.234-.378.933c-.657 1.66-1.479 2.487-2.627 2.487-.292 0-.591-.04-.889-.127v1.467c.385.106.743.146 1.101.146v.014z" fill="url(#6ww8kxevfa)"/>
    <path d="M164.635 37.533v-7h3.14c.807 0 1.427.164 1.86.49.433.32.65.76.65 1.32 0 .38-.087.7-.26.96a1.65 1.65 0 0 1-.68.6c-.287.14-.597.21-.93.21l.18-.3c.4 0 .753.07 1.06.21.307.14.55.347.73.62.18.267.27.6.27 1 0 .6-.227 1.067-.68 1.4-.447.327-1.113.49-2 .49h-3.34zm1-.81h2.3c.553 0 .977-.093 1.27-.28.293-.186.44-.48.44-.88 0-.406-.147-.703-.44-.89-.293-.186-.717-.28-1.27-.28h-2.39v-.81h2.14c.507 0 .9-.093 1.18-.28.28-.186.42-.466.42-.84 0-.373-.14-.653-.42-.84-.28-.186-.673-.28-1.18-.28h-2.05v5.38z" fill="url(#u0p3gdbcub)"/>
    <path d="M174.423 37.593c-.566 0-1.066-.116-1.5-.35a2.57 2.57 0 0 1-1-.96 2.766 2.766 0 0 1-.35-1.4c0-.526.114-.993.34-1.4.234-.406.55-.723.95-.95.407-.233.864-.35 1.37-.35.514 0 .967.114 1.36.34.394.227.7.547.92.96.227.407.34.884.34 1.43 0 .04-.003.087-.01.14 0 .054-.003.104-.01.15h-4.51v-.69h4.01l-.39.24a1.775 1.775 0 0 0-.21-.91 1.556 1.556 0 0 0-.61-.62 1.685 1.685 0 0 0-.89-.23c-.333 0-.63.077-.89.23-.26.147-.463.357-.61.63-.146.267-.22.574-.22.92v.16c0 .354.08.67.24.95.167.274.397.487.69.64.294.154.63.23 1.01.23.314 0 .597-.053.85-.16.26-.106.487-.266.68-.48l.53.62c-.24.28-.54.494-.9.64-.353.147-.75.22-1.19.22z" fill="url(#0v72z7me5c)"/>
    <path d="M180.006 37.593c-.533 0-.946-.143-1.24-.43-.293-.286-.44-.696-.44-1.23v-4.86h.96v4.82c0 .287.07.507.21.66.147.154.354.23.62.23.3 0 .55-.083.75-.25l.3.69c-.146.127-.323.22-.53.28-.2.06-.41.09-.63.09zm-2.58-4.57v-.79h3.38v.79h-3.38z" fill="url(#4x6pdxjmrd)"/>
    <path d="M185.617 37.533v-1.12l-.05-.21v-1.91c0-.406-.12-.72-.36-.94-.233-.226-.587-.34-1.06-.34-.313 0-.62.054-.92.16-.3.1-.553.237-.76.41l-.4-.72c.273-.22.6-.386.98-.5.387-.12.79-.18 1.21-.18.727 0 1.287.177 1.68.53.393.354.59.894.59 1.62v3.2h-.91zm-1.74.06c-.393 0-.74-.066-1.04-.2a1.607 1.607 0 0 1-.68-.55c-.16-.24-.24-.51-.24-.81 0-.286.067-.546.2-.78.14-.233.363-.42.67-.56.313-.14.733-.21 1.26-.21h1.68v.69h-1.64c-.48 0-.803.08-.97.24a.774.774 0 0 0-.25.58c0 .26.103.47.31.63.207.154.493.23.86.23.36 0 .673-.08.94-.24.273-.16.47-.393.59-.7l.19.66c-.127.314-.35.564-.67.75-.32.18-.723.27-1.21.27z" fill="url(#j3q16wm65e)"/>
    <defs>
        <linearGradient id="6ww8kxevfa" x1="60.675" y1="-29.797" x2="108.408" y2="67.401" gradientUnits="userSpaceOnUse">
            <stop stop-color="#00EAFF"/>
            <stop offset=".27" stop-color="#9BE7FF"/>
            <stop offset=".72" stop-color="#A1E7FF"/>
            <stop offset="1" stop-color="#0AF"/>
        </linearGradient>
        <linearGradient id="u0p3gdbcub" x1="0" y1="18.797" x2="180.077" y2="18.797" gradientUnits="userSpaceOnUse">
            <stop offset=".214" stop-color="#fff"/>
            <stop offset="1" stop-color="#4FE5FF"/>
        </linearGradient>
        <linearGradient id="0v72z7me5c" x1="0" y1="18.797" x2="180.077" y2="18.797" gradientUnits="userSpaceOnUse">
            <stop offset=".214" stop-color="#fff"/>
            <stop offset="1" stop-color="#4FE5FF"/>
        </linearGradient>
        <linearGradient id="4x6pdxjmrd" x1="0" y1="18.797" x2="180.077" y2="18.797" gradientUnits="userSpaceOnUse">
            <stop offset=".214" stop-color="#fff"/>
            <stop offset="1" stop-color="#4FE5FF"/>
        </linearGradient>
        <linearGradient id="j3q16wm65e" x1="0" y1="18.797" x2="180.077" y2="18.797" gradientUnits="userSpaceOnUse">
            <stop offset=".214" stop-color="#fff"/>
            <stop offset="1" stop-color="#4FE5FF"/>
        </linearGradient>
    </defs>
</svg>
